X: 9364
T: Dancing Morris
R: jig
M: 6/8
K: Cmajor
E2G GDE|D2C C2D|E2G GAc|d2d cAG|
DEEG2E|DEC CEG|AcA AGE|DED FED:|
|:CE/F/G cGE|cec cGE|CEG cde|d2d cGE|
CEG cGE|cdc c2G|AcA AGE|EFF FED:|

